X: 113102
T: EARL OF DALHOUSIE
Q: "Reel."
R:  Reel.
%R: reel
B: James Kerr "Merry Melodies" v.1 p.13 s.1 #2
Z: 2017 John Chambers <jc:trillian.mit.edu>
M: C
L: 1/8
K: D
|: uf |\
d2(fd) A<A fd | egfe dBBe |\
[1 d2(fd) Agfe | d>B AF D/D/D D :|\
[2 d2(fd) ecdA | BdAF D/D/D D ||
|: uB |\
ADFA B2(Bd) | ABFA BEEB |\
[1 ADFA BcdA | BdAF D/D/D D :|\
[2 AFGA Bcde | fdAF D/D/D D |]

%%sep 1 1 500
%%sep 1 1 500

